X: 1
T: Salt Creek - Amix
C: David Kaynor's version (composer unknown)
R: reel
M: C|
L: 1/8
K: Amix
|: "A"A2AA A2AA | BABc "D"d4   | "G"BAG2 BAG2  | ABAF "Em"E4 |
   "A"A2AA A2AA | BABc "D"d2ef | "G"gagf ecd^d | "Em"ecB2 "A"A4 :|
|: "A"a2aa a2ba | c'aba e2ef | "G"gfga gfef  | gfga gf "Em"e2 |
   "A"a2aa a2ba | c'aba e2ef | "G"gagf ecd^d | "Em"ecB2 "A"A4 :|

